usr/share/icons/biglinux-icons-material/22/actions/delete-comment.svg

<svg xmlns="http://www.w3.org/2000/svg" viewBox="0 0 22 22">
  <defs id="defs3051">
    <style type="text/css" id="current-color-scheme">
      .ColorScheme-Text {
        color:#363636;
      }
      </style>
  </defs>
 <path 
    style="fill:currentColor;fill-opacity:1;stroke:none" 
	d="M 3 3 L 3 13 L 6 17 L 6 14 L 6 13 L 19 13 L 19 3 L 3 3 z M 4 4 L 18 4 L 18 12 L 4 12 L 4 4 z "
	class="ColorScheme-Text"
    />
  <path
     style="fill:#da4453"
     d="M 13.980469 14 L 12.990234 14.990234 L 15 17 L 12.990234 19.009766 L 13.980469 20 L 15.990234 17.990234 L 18 20 L 18.990234 19.009766 L 16.980469 17 L 18.990234 14.990234 L 18 14 L 15.990234 16.009766 L 13.980469 14 z "
	 />
</svg>

<svg xmlns="http://www.w3.org/2000/svg" viewBox="0 0 22 22"><path d="M3 3v10l3 4v-4h13V3H3zm1 1h14v8H4V4z" style="fill:currentColor;fill-opacity:1;stroke:none;color:#dedede"/><path d="m13.98 14-.99.99L15 17l-2.01 2.01.99.99 2.01-2.01L18 20l.99-.99L16.98 17l2.01-2.01L18 14l-2.01 2.01L13.98 14z" style="fill:#da4453"/></svg>
